X: 51
%
U:~=!turn!
T: Bonny Annie
C:Donald Dow
O:Scotland
B:Keith Norman MacDonald : "The Skye collection of the best reels & strathspeys extant" : 1887
Z:Ralph Palmer
R:Reel
M:C|
L:1/8
K:A minor
c | A/A/A (AG) EGGc | A/A/A (AB) cded | (c/B/A/B/ c)G EGGc | A/A/A (eg) aAA :| g | (e/f/g) (cg) ecgc |
BGdG Bcdf | ecgc egca | gede cAAg | agea gced | cAGc EcGc | AcGc cdea | gede cAA |]


